X: 3
T: The Beeswing
R: hornpipe
M: 4/4
L: 1/8
K: Gmaj
|:FA|BfdB AecA|FdBF DBFD|EGBe DFBd|(3cBA (3BAG F2GA|Bfdb Afca|EBGe DBFd|EGBe dcBA|c2B2 B2:||:fe|dBfd bfdB|cAfc afcA|GEBG ecdB|(3cBA (3BAG F2GA|Bfdb Afca|EBGe DBFd|EGBe dcBA|c2B2 B2:||:(3FGA|Bf (3dcB Ae (3cBA|Bf (3dcB FEDF|EGBe DFBd|(3c=Bc (3_bge f2FA|(3Bdf (3bfd (3Acf (3afc|(3EGB (3eBG (3DFB (3dBF|EGBe dcBA|c2B2 B2:||:fe|(3dcB (3fdf (3bfd (3dcB|(3cBA (3fcf (3afc (3cBA|(3GEG (3BGB (3edc (3dc=B|(3c=Bc (3_bge f2FA|(3Bdf (3bfd (3Acf (3afc|(3EGB (3eBG (3DFB (3dBF|EGBe dcBA|c2B2 B2:|


Tune 945	Setting 14136

